domfk/img/advantages/icon-6.svg

<svg width="40" height="40" viewBox="0 0 40 40" fill="none" xmlns="http://www.w3.org/2000/svg">
<path d="M35.0002 9.99967H31.6668V24.9997H10.0002V28.333C10.0002 29.2497 10.7502 29.9997 11.6668 29.9997H30.0002L36.6668 36.6663V11.6663C36.6668 10.7497 35.9168 9.99967 35.0002 9.99967ZM28.3335 19.9997V4.99967C28.3335 4.08301 27.5835 3.33301 26.6668 3.33301H5.00016C4.0835 3.33301 3.3335 4.08301 3.3335 4.99967V28.333L10.0002 21.6663H26.6668C27.5835 21.6663 28.3335 20.9163 28.3335 19.9997Z" fill="black"/>
</svg>

<svg width="40" height="40" fill="none" xmlns="http://www.w3.org/2000/svg"><path d="M35 10h-3.333v15H10v3.333c0 .917.75 1.667 1.667 1.667H30l6.667 6.666v-25c0-.916-.75-1.666-1.667-1.666zm-6.666 10V5c0-.917-.75-1.667-1.667-1.667H5c-.917 0-1.667.75-1.667 1.667v23.333L10 21.666h16.667c.916 0 1.666-.75 1.666-1.666z" fill="#000"/></svg>
